src/section/nav/phone2.svg

<svg width="41" height="50" viewBox="0 0 41 50" fill="none" xmlns="http://www.w3.org/2000/svg">
<path d="M21.1101 27.36L12.1001 18.35C9.8501 16.1 9.8501 12.44 12.1001 10.19L12.8701 9.42C13.2701 9.02 13.9201 9.02 14.3201 9.42L18.0801 13.18C18.4801 13.58 18.4801 14.23 18.0801 14.63L17.0401 15.67C16.6401 16.07 16.6401 16.72 17.0401 17.12L22.3301 22.41C22.7301 22.81 23.3801 22.81 23.7801 22.41L24.8201 21.37C25.2201 20.97 25.8701 20.97 26.2701 21.37L30.0301 25.13C30.4301 25.53 30.4301 26.18 30.0301 26.58L29.2601 27.35C27.0101 29.6 23.3501 29.6 21.1001 27.35L21.1101 27.36Z" fill="#E3B15F"/>
<path d="M20.37 37.16C30.3554 37.16 38.45 29.0653 38.45 19.08C38.45 9.09469 30.3554 1 20.37 1C10.3847 1 2.29004 9.09469 2.29004 19.08C2.29004 29.0653 10.3847 37.16 20.37 37.16Z" stroke="#E3B15F" stroke-width="0.5" stroke-miterlimit="10"/>
<path d="M3.32 48.44C3.16 48.82 2.82 49.59 1.76 49.59C1.42 49.59 0 49.45 0 47.58C0 45.59 1.52 45.49 1.85 45.49C2.67 45.49 3.18 45.91 3.18 46.45C3.18 46.67 3.04 46.99 2.62 46.99C2.2 46.99 2.08 46.69 2.08 46.49C2.08 46.19 2.27 46.08 2.42 46.01C2.45 45.99 2.48 45.97 2.48 45.92C2.48 45.79 2.23 45.6 1.91 45.6C1.34 45.6 1.06 45.98 1.06 47.53C1.06 49.08 1.28 49.37 2.01 49.37C2.67 49.37 2.95 48.87 3.23 48.35L3.33 48.42L3.32 48.44Z" fill="#E3B15F"/>
<path d="M3.96997 47.54C3.96997 46.04 4.90997 45.49 5.77997 45.49C6.64997 45.49 7.58997 46.03 7.58997 47.54C7.58997 49.05 6.72997 49.59 5.77997 49.59C4.75997 49.59 3.96997 48.89 3.96997 47.54ZM6.52997 47.48C6.52997 45.76 6.19997 45.62 5.75997 45.62C5.22997 45.62 5.01997 45.97 5.01997 47.59C5.01997 49.21 5.31997 49.47 5.76997 49.47C6.29997 49.47 6.51997 49.15 6.51997 47.48H6.52997Z" fill="#E3B15F"/>
<path d="M9.81 45.62V46.32C10.11 45.93 10.46 45.49 11.11 45.49C11.76 45.49 12.17 45.85 12.17 46.51V49.33H12.87V49.45H10.66V49.33H11.2V46.52C11.2 46.09 11.2 45.75 10.77 45.75C10.39 45.75 10.02 46.19 9.79 46.52V49.33H10.4V49.45H8.12V49.33H8.83V45.72H8.12V45.61H9.79L9.81 45.62Z" fill="#E3B15F"/>
<path d="M14.85 45.62H15.71V45.74H14.85V48.75C14.85 48.92 14.85 49.26 15.22 49.26C15.59 49.26 15.73 48.91 15.8 48.75L15.9 48.8C15.84 48.98 15.63 49.58 14.77 49.58C14.38 49.58 13.89 49.44 13.89 48.75V45.74H13.15V45.62H13.89V44.36L14.85 44.29V45.62Z" fill="#E3B15F"/>
<path d="M20.31 48.93C20.08 49.59 19.49 49.59 19.44 49.59C19.23 49.59 18.7 49.44 18.73 48.89C18.36 49.49 17.67 49.59 17.36 49.59C17.1 49.59 16.34 49.53 16.34 48.66C16.34 47.36 17.78 47.32 18.72 47.28V46.3C18.72 45.68 18.27 45.61 18.05 45.61C17.57 45.61 17.34 45.87 17.34 46.01C17.34 46.08 17.36 46.09 17.51 46.16C17.65 46.23 17.75 46.42 17.75 46.6C17.75 46.77 17.65 47.12 17.21 47.12C16.88 47.12 16.64 46.9 16.64 46.55C16.64 45.98 17.21 45.49 18.14 45.49C19.69 45.49 19.69 46.28 19.69 46.83V48.86C19.69 49.01 19.69 49.12 19.87 49.12C20.05 49.12 20.14 49 20.22 48.86L20.32 48.92L20.31 48.93ZM18.73 47.4C18.48 47.4 17.38 47.44 17.38 48.5C17.38 49.04 17.77 49.12 18.01 49.12C18.32 49.12 18.55 48.98 18.73 48.74V47.4Z" fill="#E3B15F"/>
<path d="M24.21 48.44C24.05 48.82 23.71 49.59 22.65 49.59C22.31 49.59 20.89 49.45 20.89 47.58C20.89 45.59 22.41 45.49 22.74 45.49C23.56 45.49 24.07 45.91 24.07 46.45C24.07 46.67 23.93 46.99 23.51 46.99C23.09 46.99 22.97 46.69 22.97 46.49C22.97 46.19 23.16 46.08 23.31 46.01C23.34 45.99 23.37 45.97 23.37 45.92C23.37 45.79 23.12 45.6 22.8 45.6C22.23 45.6 21.95 45.98 21.95 47.53C21.95 49.08 22.17 49.37 22.9 49.37C23.56 49.37 23.84 48.87 24.12 48.35L24.22 48.42L24.21 48.44Z" fill="#E3B15F"/>
<path d="M26.29 43.58V46.39C26.4 46.14 26.68 45.49 27.59 45.49C27.67 45.49 28.67 45.49 28.67 46.51V49.33H29.34V49.45H27.17V49.33H27.71V46.46C27.71 46.14 27.66 45.74 27.27 45.74C26.68 45.74 26.45 46.26 26.29 46.59V49.33H26.9V49.45H24.6V49.33H25.34V43.68H24.6V43.56H26.29V43.58Z" fill="#E3B15F"/>
<path d="M33.9601 45.62V48.67C33.9601 49 33.9901 49.33 34.4001 49.33C34.9201 49.33 35.2201 48.97 35.3801 48.41V45.73H34.6801V45.61H36.3401V49.33H37.0401V49.45H35.3801V48.68C35.2801 48.93 35.0201 49.58 34.1101 49.58C33.0101 49.58 33.0101 48.83 33.0101 48.56V45.74H32.3101V45.62H33.9701H33.9601Z" fill="#E3B15F"/>
<path d="M40.54 46.71H40.42C40.25 45.96 39.66 45.61 39.14 45.61C38.52 45.61 38.28 46.03 38.28 46.29C38.28 46.43 38.3 46.63 38.95 46.87C40.26 47.38 40.27 47.39 40.49 47.58C40.63 47.72 40.75 47.94 40.75 48.35C40.75 48.88 40.39 49.58 39.4 49.58C38.57 49.58 38.21 49.21 38.06 49.07L37.86 49.39H37.74V48.11H37.86C37.96 48.73 38.21 49.04 38.41 49.18C38.62 49.33 39 49.46 39.31 49.46C39.77 49.46 40.22 49.18 40.22 48.8C40.22 48.42 40.04 48.35 38.7 47.84C38.25 47.66 37.78 47.46 37.78 46.72C37.78 45.86 38.47 45.49 39.09 45.49C39.64 45.49 39.9 45.69 40.21 45.94L40.41 45.62H40.53V46.71H40.54Z" fill="#E3B15F"/>
</svg>

<svg width="41" height="50" viewBox="0 0 41 50" fill="none" xmlns="http://www.w3.org/2000/svg">
<path stroke="#E3B15F" stroke-width="0.5" d="M20.4,37.2c10,0,18.1-8.1,18.1-18.1S30.4,1,20.4,1C10.4,1,2.3,9.1,2.3,19.1S10.4,37.2,20.4,37.2z"/>
<path fill="#E3B15F" d="M21.1,27.4l-9-9c-2.2-2.2-2.2-5.9,0-8.2l0.8-0.8c0.4-0.4,1.1-0.4,1.4,0l3.8,3.8c0.4,0.4,0.4,1,0,1.4l-1,1
	c-0.4,0.4-0.4,1,0,1.5l5.3,5.3c0.4,0.4,1.1,0.4,1.5,0l1-1c0.4-0.4,1-0.4,1.4,0l3.8,3.8c0.4,0.4,0.4,1.1,0,1.5l-0.8,0.8
	C27,29.6,23.4,29.6,21.1,27.4L21.1,27.4z M3.3,48.4c-0.2,0.4-0.5,1.2-1.6,1.2c-0.3,0-1.8-0.1-1.8-2c0-2,1.5-2.1,1.9-2.1
	c0.8,0,1.3,0.4,1.3,1C3.2,46.7,3,47,2.6,47s-0.5-0.3-0.5-0.5c0-0.3,0.2-0.4,0.3-0.5c0,0,0.1,0,0.1-0.1c0-0.1-0.2-0.3-0.6-0.3
	c-0.6,0-0.9,0.4-0.9,1.9c0,1.6,0.2,1.8,1,1.8C2.7,49.4,3,48.9,3.3,48.4L3.3,48.4L3.3,48.4z M4,47.5c0-1.5,0.9-2,1.8-2s1.8,0.5,1.8,2
	c0,1.5-0.9,2-1.8,2C4.8,49.6,4,48.9,4,47.5z M6.5,47.5c0-1.7-0.3-1.9-0.8-1.9c-0.5,0-0.7,0.4-0.7,2s0.3,1.9,0.8,1.9
	C6.3,49.5,6.5,49.2,6.5,47.5L6.5,47.5z M9.8,45.6v0.7c0.3-0.4,0.6-0.8,1.3-0.8c0.7,0,1.1,0.4,1.1,1v2.8h0.7v0.1h-2.2v-0.1h0.5v-2.8
	c0-0.4,0-0.8-0.4-0.8c-0.4,0-0.8,0.4-1,0.8v2.8h0.6v0.1H8.1v-0.1h0.7v-3.6H8.1v-0.1L9.8,45.6L9.8,45.6z M14.9,45.6h0.9v0.1h-0.9v3
	c0,0.2,0,0.5,0.4,0.5s0.5-0.3,0.6-0.5l0.1,0c-0.1,0.2-0.3,0.8-1.1,0.8c-0.4,0-0.9-0.1-0.9-0.8v-3h-0.7v-0.1h0.7v-1.3l1-0.1V45.6z
	 M20.3,48.9c-0.2,0.7-0.8,0.7-0.9,0.7c-0.2,0-0.7-0.2-0.7-0.7c-0.4,0.6-1.1,0.7-1.4,0.7c-0.3,0-1-0.1-1-0.9c0-1.3,1.4-1.3,2.4-1.4
	v-1c0-0.6-0.4-0.7-0.7-0.7c-0.5,0-0.7,0.3-0.7,0.4c0,0.1,0,0.1,0.2,0.2c0.1,0.1,0.2,0.3,0.2,0.4c0,0.2-0.1,0.5-0.5,0.5
	c-0.3,0-0.6-0.2-0.6-0.6c0-0.6,0.6-1.1,1.5-1.1c1.6,0,1.6,0.8,1.6,1.3v2c0,0.1,0,0.3,0.2,0.3C20,49.1,20.1,49,20.3,48.9L20.3,48.9
	L20.3,48.9z M18.7,47.4c-0.2,0-1.4,0-1.4,1.1c0,0.5,0.4,0.6,0.6,0.6c0.3,0,0.5-0.1,0.7-0.4V47.4z M24.2,48.4
	c-0.2,0.4-0.5,1.2-1.6,1.2c-0.3,0-1.8-0.1-1.8-2c0-2,1.5-2.1,1.9-2.1c0.8,0,1.3,0.4,1.3,1c0,0.2-0.1,0.5-0.6,0.5S23,46.7,23,46.5
	c0-0.3,0.2-0.4,0.3-0.5c0,0,0.1,0,0.1-0.1c0-0.1-0.2-0.3-0.6-0.3c-0.6,0-0.8,0.4-0.8,1.9c0,1.6,0.2,1.8,0.9,1.8
	C23.6,49.4,23.8,48.9,24.2,48.4L24.2,48.4L24.2,48.4z M26.3,43.6v2.8c0.1-0.2,0.4-0.9,1.3-0.9c0.1,0,1.1,0,1.1,1v2.8h0.7v0.1h-2.2
	v-0.1h0.5v-2.9c0-0.3,0-0.7-0.4-0.7c-0.6,0-0.8,0.5-1,0.8v2.7h0.6v0.1h-2.3v-0.1h0.7v-5.7h-0.7v-0.1L26.3,43.6L26.3,43.6z M34,45.6
	v3c0,0.3,0,0.7,0.4,0.7c0.5,0,0.8-0.4,1-0.9v-2.7h-0.7v-0.1h1.7v3.7H37v0.1h-1.7v-0.8c-0.1,0.2-0.4,0.9-1.3,0.9
	c-1.1,0-1.1-0.8-1.1-1v-2.8h-0.7v-0.1H34L34,45.6z M40.5,46.7h-0.1c-0.2-0.8-0.8-1.1-1.3-1.1c-0.6,0-0.9,0.4-0.9,0.7
	c0,0.1,0,0.3,0.7,0.6c1.3,0.5,1.3,0.5,1.5,0.7c0.1,0.1,0.3,0.4,0.3,0.8c0,0.5-0.4,1.2-1.3,1.2c-0.8,0-1.2-0.4-1.3-0.5l-0.2,0.3h-0.1
	v-1.3h0.1c0.1,0.6,0.3,0.9,0.5,1.1c0.2,0.2,0.6,0.3,0.9,0.3c0.5,0,0.9-0.3,0.9-0.7s-0.2-0.5-1.5-1c-0.5-0.2-0.9-0.4-0.9-1.1
	c0-0.9,0.7-1.2,1.3-1.2c0.5,0,0.8,0.2,1.1,0.4l0.2-0.3h0.1L40.5,46.7L40.5,46.7z"/>
</svg>
